flaticon/hand-gestures/lightbulb.svg

<svg xmlns="http://www.w3.org/2000/svg" width="32" height="32" viewBox="0 0 24 24">
    <path d="M 23.769531 14.761719 C 23.046875 13.800781 22.328125 13.800781 20.566406 14.71875 L 17.128906 16.839844 C 16.648438 17.121094 15.566406 17.199219 14.566406 17.199219 C 14.753906 16.867188 14.699219 16.46875 14.40625 16.003906 L 14.40625 16 C 14.40625 14.640625 15.207031 12.199219 16.089844 11.398438 C 17.328125 10.28125 18.007812 8.640625 18.007812 6.679688 C 18.007812 3 15.128906 0 11.609375 0 C 8.488281 0 5.96875 3.160156 5.6875 6 C 5.449219 7.960938 6.128906 9.878906 7.566406 11.238281 C 7.988281 11.695312 8.410156 12.792969 8.640625 14.1875 C 8.269531 14.058594 7.917969 13.875 7.609375 13.640625 C 6.164062 12.558594 3.90625 13.734375 2.808594 14.4375 L 2.808594 13.601562 L 0.0078125 13.601562 L 0.0078125 24 L 2.808594 24 L 2.808594 22.800781 L 8.007812 22.800781 C 8.808594 22.800781 9.648438 22.71875 10.449219 22.679688 L 15.648438 21.878906 C 15.847656 21.878906 16.046875 21.839844 16.207031 21.800781 C 16.6875 21.71875 17.128906 21.480469 17.527344 21.121094 L 23.566406 16.359375 C 24.046875 15.960938 24.128906 15.238281 23.769531 14.761719 Z M 11.609375 8.800781 C 11.367188 8.800781 11.207031 8.960938 11.207031 9.199219 L 11.207031 9.601562 C 10.96875 9.601562 10.808594 9.441406 10.808594 9.199219 L 10.808594 8.398438 C 10.808594 8.160156 10.96875 8 11.207031 8 L 12.007812 8 C 12.25 8 12.40625 8.160156 12.40625 8.398438 L 12.40625 9.199219 C 12.40625 9.441406 12.25 9.601562 12.007812 9.601562 L 12.007812 9.199219 C 12.007812 8.960938 11.847656 8.800781 11.609375 8.800781 Z M 6.449219 6.078125 C 6.726562 3.601562 8.96875 0.800781 11.609375 0.800781 C 14.6875 0.800781 17.207031 3.441406 17.207031 6.679688 C 17.207031 8.398438 16.648438 9.839844 15.566406 10.800781 C 14.609375 11.640625 13.886719 13.679688 13.6875 15.160156 C 13.214844 14.78125 12.640625 14.527344 12.007812 14.4375 L 12.007812 10.398438 C 12.6875 10.398438 13.207031 9.878906 13.207031 9.199219 L 13.207031 8.398438 C 13.207031 7.71875 12.6875 7.199219 12.007812 7.199219 L 11.207031 7.199219 C 10.527344 7.199219 10.007812 7.71875 10.007812 8.398438 L 10.007812 9.199219 C 10.007812 9.878906 10.527344 10.398438 11.207031 10.398438 L 11.207031 14.398438 L 9.929688 14.398438 C 9.769531 14.398438 9.648438 14.359375 9.488281 14.359375 C 9.328125 13.359375 8.96875 11.480469 8.089844 10.640625 C 6.847656 9.480469 6.25 7.800781 6.449219 6.078125 Z M 2.007812 23.199219 L 0.808594 23.199219 L 0.808594 14.398438 L 2.007812 14.398438 Z M 23.089844 15.761719 L 17.007812 20.480469 L 16.96875 20.519531 C 16.726562 20.800781 16.40625 20.960938 16.046875 21 C 15.886719 21.039062 15.769531 21.039062 15.609375 21.039062 L 10.328125 21.839844 C 9.566406 21.960938 8.769531 22 8.007812 22 L 2.808594 22 L 2.808594 15.398438 C 3.769531 14.71875 6.007812 13.441406 7.128906 14.28125 C 7.601562 14.652344 8.164062 14.917969 8.765625 15.066406 L 8.769531 15.078125 L 8.953125 15.105469 C 9.222656 15.160156 9.496094 15.191406 9.773438 15.199219 C 9.8125 15.199219 9.851562 15.199219 9.886719 15.199219 L 11.449219 15.199219 C 11.503906 15.199219 11.5625 15.203125 11.617188 15.203125 C 11.628906 15.207031 11.644531 15.207031 11.65625 15.207031 C 11.699219 15.210938 11.742188 15.214844 11.785156 15.21875 C 11.796875 15.222656 11.808594 15.222656 11.824219 15.226562 C 11.867188 15.230469 11.90625 15.238281 11.949219 15.246094 C 11.960938 15.246094 11.972656 15.25 11.984375 15.25 C 12.027344 15.257812 12.070312 15.269531 12.113281 15.277344 C 12.121094 15.28125 12.132812 15.285156 12.140625 15.285156 C 12.183594 15.296875 12.230469 15.308594 12.273438 15.320312 C 12.28125 15.324219 12.289062 15.328125 12.300781 15.332031 C 12.34375 15.34375 12.382812 15.359375 12.425781 15.375 C 12.4375 15.378906 12.449219 15.382812 12.457031 15.386719 C 12.496094 15.402344 12.535156 15.417969 12.574219 15.433594 C 12.589844 15.441406 12.605469 15.445312 12.621094 15.453125 C 12.648438 15.46875 12.679688 15.480469 12.710938 15.496094 C 12.734375 15.507812 12.761719 15.523438 12.785156 15.535156 C 12.800781 15.542969 12.816406 15.554688 12.832031 15.5625 C 13.136719 15.734375 13.402344 15.964844 13.609375 16.238281 L 13.726562 16.398438 L 13.753906 16.398438 C 13.890625 16.625 13.925781 16.84375 13.886719 16.917969 C 13.769531 17.121094 13.289062 17.199219 12.769531 17.238281 C 12.671875 17.238281 12.574219 17.238281 12.488281 17.238281 C 12.429688 17.238281 12.375 17.238281 12.328125 17.238281 L 8.609375 17.238281 C 7.367188 17.238281 6.609375 17.839844 6.609375 18.839844 C 6.609375 19.078125 6.769531 19.238281 7.007812 19.238281 C 7.25 19.238281 7.40625 19.078125 7.40625 18.839844 C 7.40625 18.640625 7.40625 18.039062 8.609375 18.039062 L 12.289062 18.039062 C 12.40625 18.039062 12.566406 18.039062 12.808594 18.039062 C 12.847656 18.039062 12.929688 18.039062 13.007812 18.039062 C 14.886719 18.078125 16.648438 18.039062 17.566406 17.558594 L 21.007812 15.441406 C 22.6875 14.601562 22.847656 14.800781 23.167969 15.28125 C 23.25 15.398438 23.25 15.640625 23.089844 15.761719 Z M 23.089844 15.761719"/>
</svg>

<svg xmlns="http://www.w3.org/2000/svg" width="32" height="32" viewBox="0 0 24 24">
    <path d="M23.77 14.762c-.723-.961-1.442-.961-3.204-.043l-3.437 2.12c-.48.282-1.563.36-2.563.36.188-.332.133-.73-.16-1.195V16c0-1.36.801-3.8 1.684-4.602 1.238-1.117 1.918-2.757 1.918-4.718C18.008 3 15.128 0 11.609 0 8.49 0 5.97 3.16 5.688 6a6.132 6.132 0 0 0 1.878 5.238c.422.457.844 1.555 1.075 2.95a3.732 3.732 0 0 1-1.032-.547c-1.445-1.082-3.703.093-4.8.796v-.835H.008V24h2.8v-1.2h5.2c.8 0 1.64-.081 2.441-.12l5.2-.801c.199 0 .398-.04.558-.078.48-.082.922-.32 1.32-.68l6.04-4.762c.48-.398.562-1.12.203-1.597zM11.61 8.8c-.243 0-.403.16-.403.398v.403c-.238 0-.398-.16-.398-.403v-.8c0-.239.16-.399.398-.399h.8c.243 0 .4.16.4.398V9.2c0 .242-.157.403-.4.403v-.403c0-.238-.16-.398-.398-.398zM6.45 6.078C6.726 3.602 8.968.801 11.61.801c3.078 0 5.597 2.64 5.597 5.879 0 1.718-.559 3.16-1.64 4.12-.958.84-1.68 2.88-1.88 4.36a3.45 3.45 0 0 0-1.68-.723v-4.039c.68 0 1.2-.52 1.2-1.199v-.8c0-.68-.52-1.2-1.2-1.2h-.8c-.68 0-1.2.52-1.2 1.2v.8c0 .68.52 1.2 1.2 1.2v4H9.93c-.16 0-.282-.04-.442-.04-.16-1-.52-2.879-1.398-3.718C6.848 9.48 6.25 7.8 6.45 6.078zM2.007 23.2h-1.2v-8.8h1.2zm21.082-7.437l-6.082 4.718-.04.04a1.39 1.39 0 0 1-.921.48c-.16.04-.277.04-.438.04l-5.28.8c-.763.12-1.56.16-2.321.16h-5.2v-6.602c.962-.68 3.2-1.957 4.32-1.117a4.33 4.33 0 0 0 1.638.785l.004.012.183.027c.27.055.543.086.82.094H11.45c.055 0 .114.004.168.004a.133.133 0 0 0 .04.004l.128.012c.012.004.024.004.04.008.042.003.081.011.124.02.012 0 .024.003.035.003.043.008.086.02.13.027.007.004.019.008.027.008l.132.035a.19.19 0 0 0 .028.012c.043.012.082.027.125.043l.031.012.117.047c.016.007.031.011.047.02.027.015.059.026.09.042l.074.04c.016.007.031.019.047.027.305.171.57.402.777.675l.118.16h.027c.137.227.172.446.133.52-.117.203-.598.281-1.117.32H8.609c-1.242 0-2 .602-2 1.602 0 .238.16.398.399.398.242 0 .398-.16.398-.398 0-.2 0-.8 1.203-.8h4.399c1.879.038 3.64 0 4.558-.481l3.442-2.118c1.68-.84 1.84-.64 2.16-.16.082.117.082.36-.078.48zm0 0"/>
</svg>
